dist/img/icons/svg/color/gas.svg

<svg xmlns="http://www.w3.org/2000/svg" width="32" height="32" viewBox="0 0 32 32">
  <g fill="none" fill-rule="evenodd">
    <circle cx="16" cy="16" r="16" fill="#58BF00"/>
    <path fill="#FFF" fill-rule="nonzero" d="M25,22.5792095 L18.0093653,19.3222295 L18.0093653,12.1025447 L25,9.62203372 L25,22.5792095 Z M14.823082,26 L8,22.820976 L8,9.95789691 L14.823082,13.138638 L14.823082,26 Z M24.8324472,9.15738865 L24.720166,9.19722518 L18.0093653,11.5781449 L17.8418125,11.6378997 L14.9989776,12.646176 L8.26975299,9.51007933 L17.8418125,6.1140149 L17.9255889,6.0841375 L18.1032226,6.02129194 L18.165099,6 L24.8943236,9.13575329 L24.8324472,9.15738865 Z"/>
  </g>
</svg>

<svg height="32" width="32" xmlns="http://www.w3.org/2000/svg"><linearGradient id="a" x1="53856%" x2="53856%" y1="-3432%" y2="77792%"><stop offset="0" stop-color="#58bf00"/><stop offset=".23" stop-color="#58bf00"/><stop offset=".42" stop-color="#58bf00"/><stop offset=".61" stop-color="#29b800"/><stop offset=".78" stop-color="#00ae1d"/><stop offset=".99" stop-color="#00a62c"/></linearGradient><g fill="none" fill-rule="evenodd"><circle cx="16" cy="16" fill="url(#a)" r="16"/><path d="M25 22.58l-6.99-3.258v-7.22L25 9.623zM14.823 26L8 22.821V9.958l6.823 3.18zm10.01-16.843l-.113.04-6.71 2.381-.168.06-2.843 1.008-6.73-3.136 9.573-3.396.084-.03.177-.063.062-.021 6.73 3.136z" fill="#fff" fill-rule="nonzero"/></g></svg>
